public/images/geolocation.svg

<svg fill="none" height="36" viewBox="0 0 26 36" width="26" xmlns="http://www.w3.org/2000/svg"><g fill="#e08631"><path d="m24.1008 6.09784c-2.2445-3.76137-6.3627-6.09796207-10.7474-6.09796207-2.2455 0-4.45708.61131507-6.39542 1.76770207-5.9198 3.53224-7.862336 11.22232-4.3301 17.14242l9.82652 16.4688c.1912.3204.5368.5166.91.5166.3731 0 .7188-.1962.9098-.5166l9.8276-16.471c2.3511-3.9602 2.3504-8.8687-.001-12.80996zm-1.8199 11.72616-8.9165 14.9438-8.91658-14.9438c-2.93359-4.9165-1.32029-11.30298 3.59619-14.23656 1.60996-.96058 3.44589-1.46846 5.30949-1.46846 3.6425 0 7.0634 1.94072 8.9275 5.06465 1.9529 3.27327 1.9524 7.35117-.0001 10.64037z"/><path d="m13.3618 6.22821c-3.40746 0-6.17967 2.77229-6.17967 6.17989 0 3.4075 2.77221 6.1797 6.17967 6.1797 3.4076 0 6.1798-2.7722 6.1798-6.1797 0-3.4076-2.7722-6.17989-6.1798-6.17989zm0 10.24039c-2.239 0-4.06041-1.8215-4.06041-4.0604 0-2.2391 1.82141-4.06073 4.06041-4.06073 2.2391 0 4.0607 1.82163 4.0607 4.06073 0 2.2388-1.8216 4.0604-4.0607 4.0604z"/></g></svg>

<svg width="26" height="36" viewBox="0 0 26 36" fill="none" xmlns="http://www.w3.org/2000/svg">
<path d="M24.1008 6.09784C21.8563 2.33647 17.7381 -0.00012207 13.3534 -0.00012207C11.1079 -0.00012207 8.89632 0.611193 6.95798 1.76758C1.03818 5.29982 -0.904356 12.9899 2.62788 18.91L12.4544 35.3788C12.6456 35.6992 12.9912 35.8954 13.3644 35.8954C13.7375 35.8954 14.0832 35.6992 14.2742 35.3788L24.1018 18.9078C26.4529 14.9476 26.4522 10.0391 24.1008 6.09784ZM22.2809 17.824L13.3644 32.7678L4.44782 17.824C1.51423 12.9075 3.12753 6.52102 8.04401 3.58744C9.65397 2.62686 11.4899 2.11898 13.3535 2.11898C16.996 2.11898 20.4169 4.0597 22.281 7.18363C24.2339 10.4569 24.2334 14.5348 22.2809 17.824Z" fill="#E08631"/>
<path d="M13.3618 6.22821C9.95434 6.22821 7.18213 9.0005 7.18213 12.4081C7.18213 15.8156 9.95434 18.5878 13.3618 18.5878C16.7694 18.5878 19.5416 15.8156 19.5416 12.4081C19.5416 9.0005 16.7694 6.22821 13.3618 6.22821ZM13.3618 16.4686C11.1228 16.4686 9.30139 14.6471 9.30139 12.4082C9.30139 10.1691 11.1228 8.34747 13.3618 8.34747C15.6009 8.34747 17.4225 10.1691 17.4225 12.4082C17.4225 14.647 15.6009 16.4686 13.3618 16.4686Z" fill="#E08631"/>
</svg>
